X:2
T:Cutter, The
C:Chris Walshaw
R:jig
M:6/8
K:G
ABA e2d|ABA d2c|cBA GAB|ABc dcB|\
ABA e2d|ABA d2c|cBA GAB|1 d2 c2 B2:|2 A3-A2B|]
GAG d2c|GAG c2B|BAG ABc|dcB AGF|\
GAG d2c|GAG c2B|BAG FGA|1 c2 B2 A2:|2 c3-c3|]

